X: 1
T: O Sole Mio  [D]
C: music: Eduardo di Capua 1898
C: words: Giovanni Capurro
N: Words by G. Capurro
Z: 1999 John Chambers <jc@trillian.mit.edu>
M: 4/4
L: 1/4
K: D
% - - - - - - - - - - - - - - - - - - - - - - - - -
"A"[|\
"D"zA GF | E2 D2 | zD/E/ F>D | "Em"C2 B,2 |\
zC DE | "A7"C>B, B,2- | B,C DE | "D"B,2 {A,}A,2 |\
"D"zA GF | E2 D2 |
zD/E/ FD | "Em"{D}C2 B,2 |\
zG FE | "D"A>F ED | "A7"E3 "^rit..."F | "D"(3E/F/E/ D3 \
"B"|]|\
HzHd HdHc | "D"{c}A2 A2 | zc cB | "Em"{B}G4 |
zc cB | "Em"{B}G2 G2 | "A7"zE FG | "D"A4 |\
z2 z A | "Gm"_B2 B2 | zG d>_B | "D"A2 A2 |\
zF ED | "A7"A4 | zF {EF}E>D | "D"D4 |]
y4 y4 y4 y4 y4 y4 "Coda"[| zF ED | "A7"A4 | zA [fA]>[eG] | "D"[d4F4] |]
% - - - - - - - - - - - - - - - - - - - - - - - - -
